!!!OTL: In Festo Sanctissime Trinitatis
**kern
*staff1
=--
*clefG2
*k[]
00.r
=-
1g
0a
0cc
1a
=-
1a
1a
1g
2a
2b
2cc
2a
1g
=-
1a
0g
0a
1cc
=-
1dd
1cc
2cc
2cc
2b
2a
1g
1a
=-
!!linebreak:original
1a
1cc
1cc
1dd
2cc
2b
1a
=-
1g
0g
0a
=-
1.cc
2cc
1cc
1.dd
2cc
=-
1b
1a
2dd
2cc
0a
=-
!LO:TX:Y=118:t=P
0cc
=-
!!linebreak:original
*clefC1
0r
=-
1cc
2cc
2dd
=-
2ee
2dd
2cc
2b
=-
2a
2g
1a
=-
!LO:TX:Y=-41:t=P
1b
1cc
=-
1cc
1cc
=-
1b
1cc
=-
1dd
1cc
=-
!!linebreak:original
1cc
2cc
2b
=-
2a
2g
2cc
2b
=-
1a
1g
=-
!LO:TX:Y=-37:t=P
1cc
1cc
=-
1b
1cc
=-
1a
1g
=-
0a
=-
0g
=-
!!linebreak:original
1f
2g
2g
=-
!LO:TX:Y=-38:t=P
1a
1g
=-
1a
2g
2f
=-
!LO:TX:Y=-38:t=P
!LO:TX:Y=-39:t=P
1e
1d
=-
1f
2g
2g
=-
!LO:TX:Y=-42:t=P
1a
1g
=-
1a
2b
2cc
=-
2dd
2b
2cc
2dd
=-
0cc
=-
0dd
=-=
*-
!!title: @{OTL}, @{GTL}, ed. @{ENC}
!!!pag:
!!!GTL: Hymnbook C
!!!EFL: 
!!!YEM: Creative Commons CC/BY/NC/SA 4.0
!!!ENC: Marcin Konik
!!!END: 2015-0m-dd
!!!EED: Marcin Konik
!!!EEV: 
!!!ONB: Encoded in vim by Marcin Konik
!!!CharacterEncoding: utf-8
!!!RDF**kern: l=long note in original notation
!!!RDF**kern: i=editorial accidental
!!muse2ps: z14jc180F
!!!COM: Anonim
!!!CDT: [?]
!!!TXO: Polish
!!!ODT: 
!!!GTL: Hymnbook C
!!!ARL: Opactwo św. Wojciecha, Staniątki 
!!!voices:	1
